X:67
%%etbk:tnset id:23,pos:2,rep:3x,ant:
%%etbk:wsite http://www.thesession.org/tunes/display/595
%%etbk:skill ?
%%etbk:pldat 2013-11-23T15:26,2013-11-19T16:55,2013-11-18T18:47,2013-10-08T15:29,2013-08-29T16:30,2013-08-26T18:22,2013-05-23T18:44,2013-05-22T15:58,2013-05-07T19:33,2013-05-06T18:32,2013-05-05T14:43
T: Dogs Among The Bushes, The
Z: Piano Box Version by Martin Fleischmann
H: Created 2013-02-19 /  Last Modified 2013-02-19
M: 4/4
L: 1/8
R: reel
K: Gmaj
:"G"!2!B!1!G!4!{B}!2!G!2!G !1!D!2!G!2!G!2!G | !4!B!1!G !3!(3G!2!G!1!G  "C"!3!cedc | "G"!2!B!1!G!4!{B}!2!G!2!G  !1!D!3!GFG | "D"!4!A2!1!A!3!d !5!f!4!d!2!c!1!A:|
"G"!3!d!5!g!3!gf !3!g!2!g!3!gf | !1!d!3!g!2!g!3!g !5!b!3!g!4!a!2!f | "D"!1!d!3!ffe fgfe | !1!d!3!f!2!f!3!f !5!a!3!fff |
"G"!1!d!3!ggf !3!g3f | !1!d!3!g!2!g!3!g !5!b!3!g!4!ag | !5!b!3!g!2!g!3!g !4!a!3!g!3!gf | "D"!1!d2!3!d!4!e !5!f!3!d!2!c!1!A ||
